X: 2027
T: Ashmolean House
R: reel
M: 4/4
K: Dmajor
|:AF F2 EDBA|D2 (3FED FAAB|d2fd efdB|AFDE FEEB|
AF F2 EDBA|D2 (3FED FAAB|ABde dBAF|AGEG FDDB:|
|:defg ~a3b|afdf e~B3|defg afbf|afdf e2 ag|
f~d3 A~d3|ed (3Bcd egfe|dBAF A3B|AGEG FDDA:|

